common/src/main/resources/files/plugins/datagrip/googleCloudSpannerFileType.svg

<!--
  - The MIT License (MIT)
  -
  - Copyright (c) 2015-2024 Elior "Mallowigi" Boukhobza
  -
  - Permission is hereby granted, free of charge, to any person obtaining a copy
  - of this software and associated documentation files (the "Software"), to deal
  - in the Software without restriction, including without limitation the rights
  - to use, copy, modify, merge, publish, distribute, sublicense, and/or sell
  - copies of the Software, and to permit persons to whom the Software is
  - furnished to do so, subject to the following conditions:
  -
  - The above copyright notice and this permission notice shall be included in all
  - copies or substantial portions of the Software.
  -
  - THE SOFTWARE IS PROVIDED "AS IS", WITHOUT WARRANTY OF ANY KIND, EXPRESS OR
  - IMPLIED, INCLUDING BUT NOT LIMITED TO THE WARRANTIES OF MERCHANTABILITY,
  - FITNESS FOR A PARTICULAR PURPOSE AND NONINFRINGEMENT. IN NO EVENT SHALL THE
  - AUTHORS OR COPYRIGHT HOLDERS BE LIABLE FOR ANY CLAIM, DAMAGES OR OTHER
  - LIABILITY, WHETHER IN AN ACTION OF CONTRACT, TORT OR OTHERWISE, ARISING FROM,
  - OUT OF OR IN CONNECTION WITH THE SOFTWARE OR THE USE OR OTHER DEALINGS IN THE
  - SOFTWARE.
  -->
<svg data-big="true" width="16px" height="16px" viewBox="0 0 16 16" fill="#4387FB" xmlns="http://www.w3.org/2000/svg">
  <defs>
    <mask id="Mask">
      <path
        d="M3.89729 2.03747L0.737569 7.45414C0.540805 7.79145 0.540805 8.20855 0.737569 8.54586L3.89729 13.9625C4.09144 14.2953 4.44775 14.5 4.83305 14.5H11.1719C11.5572 14.5 11.9135 14.2953 12.1077 13.9625L15.2674 8.54586C15.4642 8.20855 15.4642 7.79145 15.2674 7.45414L12.1077 2.03747C11.9135 1.70465 11.5572 1.5 11.1719 1.5H4.83305C4.44775 1.5 4.09144 1.70465 3.89729 2.03747Z"
        fill="white"/>
      <path
        d="M14.2752 10.2468L9.16357 5.13522L8.36486 4.75V5.48053L7.63433 4.75L6.83562 5.13522V6.32307L7.52232 6.68834V7.84867L6.5158 8.42978L5.85613 8.01772L4.82742 8.61164L4.89316 9.49596L5.42795 10.0307L5.25843 10.1286L9.62982 14.5H11.1719C11.5572 14.5 11.9135 14.2953 12.1077 13.9625L14.2752 10.2468Z"
        fill="white"/>
      <path
        d="M7.52229 6.68834V7.84867L6.51577 8.42978L5.8561 8.01772L4.82739 8.61164L4.89313 9.49596L5.74089 9.00651L6.08801 9.22787L6.10615 9.63916L5.2584 10.1286L5.99136 10.6277L7.02007 10.0338L6.99305 9.25645L7.99956 8.67534L9.0069 9.25646L8.97988 10.0338L10.0086 10.6277L10.7416 10.1286L9.89381 9.63917L9.91195 9.22787L10.2591 9.00651L11.1068 9.49596L11.1726 8.61165L10.1439 8.01772L9.48418 8.42979L8.47684 7.8482V6.68834L9.16354 6.32307V5.13522L8.36483 4.75V5.7289L7.99956 5.91884L7.6343 5.7289V4.75L6.83559 5.13522V6.32307L7.52229 6.68834Z"
        fill="black"/>
    </mask>
  </defs>
  <g mask="url(#Mask)">
    <path
      d="M3.89729 2.03747L0.737569 7.45414C0.540805 7.79145 0.540805 8.20855 0.737569 8.54586L3.89729 13.9625C4.09144 14.2953 4.44775 14.5 4.83305 14.5H11.1719C11.5572 14.5 11.9135 14.2953 12.1077 13.9625L15.2674 8.54586C15.4642 8.20855 15.4642 7.79145 15.2674 7.45414L12.1077 2.03747C11.9135 1.70465 11.5572 1.5 11.1719 1.5H4.83305C4.44775 1.5 4.09144 1.70465 3.89729 2.03747Z"
    />
    <path
      d="M14.2752 10.2468L9.16357 5.13522L8.36486 4.75V5.48053L7.63433 4.75L6.83562 5.13522V6.32307L7.52232 6.68834V7.84867L6.5158 8.42978L5.85613 8.01772L4.82742 8.61164L4.89316 9.49596L5.42795 10.0307L5.25843 10.1286L9.62982 14.5H11.1719C11.5572 14.5 11.9135 14.2953 12.1077 13.9625L14.2752 10.2468Z"
    />
    <path
      d="M7.52229 6.68834V7.84867L6.51577 8.42978L5.8561 8.01772L4.82739 8.61164L4.89313 9.49596L5.74089 9.00651L6.08801 9.22787L6.10615 9.63916L5.2584 10.1286L5.99136 10.6277L7.02007 10.0338L6.99305 9.25645L7.99956 8.67534L9.0069 9.25646L8.97988 10.0338L10.0086 10.6277L10.7416 10.1286L9.89381 9.63917L9.91195 9.22787L10.2591 9.00651L11.1068 9.49596L11.1726 8.61165L10.1439 8.01772L9.48418 8.42979L8.47684 7.8482V6.68834L9.16354 6.32307V5.13522L8.36483 4.75V5.7289L7.99956 5.91884L7.6343 5.7289V4.75L6.83559 5.13522V6.32307L7.52229 6.68834Z"
      fill="white"/>
  </g>
</svg>

<svg xmlns="http://www.w3.org/2000/svg" width="16" height="16" fill="#4387FB" data-big="true"><defs><mask id="a"><path fill="#fff" d="M3.897 2.037.737 7.454a1.08 1.08 0 0 0 0 1.092l3.16 5.417c.194.332.55.537.936.537h6.339c.385 0 .742-.205.936-.537l3.16-5.417a1.08 1.08 0 0 0 0-1.092l-3.16-5.417a1.08 1.08 0 0 0-.936-.537H4.833c-.385 0-.742.205-.936.537"/><path fill="#fff" d="M14.275 10.247 9.164 5.135l-.8-.385v.73l-.73-.73-.798.385v1.188l.686.365v1.16l-1.006.582-.66-.412-1.029.594.066.884.535.535-.17.098L9.63 14.5h1.542c.385 0 .742-.205.936-.537z"/><path fill="#000" d="M7.522 6.688v1.16l-1.006.582-.66-.412-1.029.594.066.884.848-.49.347.222.018.411-.848.49.733.499 1.03-.594-.028-.778L8 8.676l1.007.58-.027.778 1.029.594.733-.5-.848-.489.018-.411.347-.221.848.489.066-.884-1.03-.594-.659.412-1.007-.582v-1.16l.687-.365V5.135l-.8-.385v.979L8 5.919l-.366-.19V4.75l-.798.385v1.188z"/></mask></defs><g mask="url(#a)"><path d="M3.897 2.037.737 7.454a1.08 1.08 0 0 0 0 1.092l3.16 5.417c.194.332.55.537.936.537h6.339c.385 0 .742-.205.936-.537l3.16-5.417a1.08 1.08 0 0 0 0-1.092l-3.16-5.417a1.08 1.08 0 0 0-.936-.537H4.833c-.385 0-.742.205-.936.537"/><path d="M14.275 10.247 9.164 5.135l-.8-.385v.73l-.73-.73-.798.385v1.188l.686.365v1.16l-1.006.582-.66-.412-1.029.594.066.884.535.535-.17.098L9.63 14.5h1.542c.385 0 .742-.205.936-.537z"/><path fill="#fff" d="M7.522 6.688v1.16l-1.006.582-.66-.412-1.029.594.066.884.848-.49.347.222.018.411-.848.49.733.499 1.03-.594-.028-.778L8 8.676l1.007.58-.027.778 1.029.594.733-.5-.848-.489.018-.411.347-.221.848.489.066-.884-1.03-.594-.659.412-1.007-.582v-1.16l.687-.365V5.135l-.8-.385v.979L8 5.919l-.366-.19V4.75l-.798.385v1.188z"/></g></svg>
